src/lib/packages/icons/src/assets/line/crown.svg

<svg width="24" height="24" viewBox="0 0 24 24" fill="none" xmlns="http://www.w3.org/2000/svg">
<path d="M21.004 6.95001C20.43 6.54801 19.698 6.52299 19.099 6.88599L16.606 8.39401C16.497 8.45901 16.359 8.428 16.289 8.323L13.449 4.02899C13.126 3.54099 12.585 3.25 12 3.25C11.415 3.25 10.874 3.54099 10.551 4.02899L7.71401 8.32001C7.64301 8.42701 7.50105 8.459 7.39205 8.392L4.902 6.88599C4.302 6.52299 3.57103 6.54801 2.99703 6.95001C2.42203 7.35201 2.14902 8.03 2.28902 8.737L3.91304 16.001L3.35903 19.293C3.29803 19.656 3.40004 20.026 3.63704 20.308C3.87504 20.589 4.223 20.751 4.592 20.751H19.409C19.778 20.751 20.125 20.59 20.364 20.308C20.602 20.027 20.703 19.657 20.642 19.293L20.088 16.001L21.712 8.737C21.713 8.731 21.714 8.72499 21.716 8.71899C21.852 8.02999 21.579 7.35301 21.004 6.95001ZM4.88704 19.25L5.308 16.75H18.693L19.114 19.25H4.88704ZM18.719 15.25H5.282L3.756 8.42801C3.729 8.29101 3.80701 8.21299 3.85701 8.17899C3.90501 8.14399 4.006 8.09801 4.126 8.17001L6.61501 9.67599C7.41701 10.161 8.44805 9.92801 8.96505 9.14801L11.802 4.85699C11.925 4.67099 12.075 4.67099 12.198 4.85699L15.037 9.14999C15.553 9.92999 16.582 10.161 17.382 9.67801L19.875 8.17001C19.994 8.09801 20.095 8.14399 20.144 8.17899C20.192 8.21299 20.269 8.289 20.246 8.422L18.719 15.25Z" fill="currentColor"/>
</svg>

<svg xmlns="http://www.w3.org/2000/svg" width="24" height="24" fill="none"><path fill="currentColor" d="M21.004 6.95a1.726 1.726 0 0 0-1.905-.064l-2.493 1.508a.234.234 0 0 1-.317-.071l-2.84-4.294A1.733 1.733 0 0 0 12 3.25c-.585 0-1.126.291-1.449.779L7.714 8.32a.237.237 0 0 1-.322.072l-2.49-1.506a1.726 1.726 0 0 0-1.905.064 1.73 1.73 0 0 0-.708 1.787l1.624 7.264-.554 3.292a1.253 1.253 0 0 0 1.233 1.458h14.817a1.248 1.248 0 0 0 1.233-1.458l-.554-3.292 1.624-7.264.004-.018a1.725 1.725 0 0 0-.712-1.769ZM4.887 19.25l.421-2.5h13.385l.421 2.5H4.887Zm13.832-4H5.282L3.756 8.428a.233.233 0 0 1 .101-.249.235.235 0 0 1 .269-.009l2.489 1.506a1.734 1.734 0 0 0 2.35-.528l2.837-4.291c.123-.186.273-.186.396 0l2.839 4.293a1.73 1.73 0 0 0 2.345.528l2.493-1.508a.235.235 0 0 1 .269.009c.048.034.125.11.102.243l-1.527 6.828Z"/></svg>
